information.svg

<svg fill="currentColor" viewBox="0 0 24 24"><path d="M13 9h-2V7h2m0 10h-2v-6h2m-1-9A10 10 0 0 0 2 12a10 10 0 0 0 10 10 10 10 0 0 0 10-10A10 10 0 0 0 12 2"/></svg>

<svg  viewBox="0 0 24 24" fill="currentColor"><path  d="M13,9H11V7H13M13,17H11V11H13M12,2A10,10 0 0,0 2,12A10,10 0 0,0 12,22A10,10 0 0,0 22,12A10,10 0 0,0 12,2Z"/></svg>
